!!!SOCIAL_FUNCTION:	songs used in treatment of the sick
!!!PDT:	1918

Specific Region: Dakotas, Minnesota, Montana, Nebraska
!!!REG: Dakotas and Montana
!!!LING_GROUP: Siouan
!!!LANG: Tone
!!!OTL@ENG: Song Preceding Treatment of Fractures
!!!ONM: No. 86
**kern
*Imale
*clefF4
*k[f#c#g#d#a#]
*M3/4
*>[A,B,B]
*>norep[A,B]
*>A
*MM88
8d#
8d#
8d#
8d#
8d#
8d#
=2
[2d#
8d#]
8B
=3||
*M2/4
8.d#
16d#
8d#
8d#
=4
(16d#
8.B)
4B
=5!|:
*>B
8d#
8d#
8d#
8d#
=6
(16d#
[8.B)
4B_
=7
2B]
=8||
*M3/4
16c#
8.B
16c#
8.A
16F#
8.E
=9
2.E
=10||
*M2/4
16E
8.F#
16E
8.D#
=11||
*M3/4
[2D#
8.D#]
16BB
=12||
*M2/4
8.D#
16D#
8D#
8D#
=13
(16D#
[8.BB)
4BB]
=14
2BB
==:|!
*-
!!!CNT: Native American -- Sioux
!!!MRD: 1911/07//-1914///
!!!OCL: Frances Densmore
!!!YOR1: Teton Sioux Music, Bulletin 61,
!!!YOR2: Bureau of American Ethnology, Smithsonian Institution
!!!PPR: Government Printing Office
!!!PPP: Washington, D.C.
!!!PDT: 1918///
!!!ENC: Craig Stuart Sapp
!!!END: 2002/03/25/
!!!EEV: 2002/03/31/
!!!AGN: Song of Personal Dreams/Song Used in Treatment of the Sick
!!!MPN@@SIO: Wangbli'-waha'chungka
!!!MPN@ENG: Eagle Shield
!!!TXO: Teton Sioux
!!!MLC: Standing Rock Reservation, South Dakota, United States of America
!!!ARL: 45.9/-100.7#
!!!catalog: Catalogue No. 516
!!!PPG: 262
!!!EFL: 86/245
!!!VTS: 2194324433
